usr/share/icons/biglinux-icons-material/24/actions/draw-brush.svg

<svg xmlns="http://www.w3.org/2000/svg" viewBox="0 0 24 24">
  <defs id="defs3051">
    <style type="text/css" id="current-color-scheme">
      .ColorScheme-Text {
        color:#dedede;
      }
      </style>
  </defs>
 <path style="fill:currentColor;fill-opacity:1;stroke:none" 
     d="M 19.513672 4.0078125 A 2 9 45 0 0 12.068359 9.1054688 A 2 9 45 0 0 8.5253906 13.21875 C 9.6014506 13.56139 10.440563 14.400494 10.783203 15.476562 A 2 9 45 0 0 14.896484 11.933594 A 2 9 45 0 0 19.845703 4.15625 A 2 9 45 0 0 19.513672 4.0078125 z M 8 14.664062 C 3.99999 15.735864 7 18.26795 4 20 C 8.00339 20 10 17.99918 10 16.664062 C 10 15.999182 10.0676 14.774622 8 14.664062 z "
     class="ColorScheme-Text"
     />
</svg>

<svg xmlns="http://www.w3.org/2000/svg" viewBox="0 0 24 24"><path d="M19.514 4.008a2 9 45 0 0-7.446 5.097 2 9 45 0 0-3.543 4.114 3.471 3.471 0 0 1 2.258 2.258 2 9 45 0 0 4.113-3.543 2 9 45 0 0 4.95-7.778 2 9 45 0 0-.332-.148zM8 14.664C4 15.736 7 18.268 4 20c4.003 0 6-2 6-3.336 0-.665.068-1.89-2-2z" style="fill:currentColor;fill-opacity:1;stroke:none;color:#dedede"/></svg>
